src/wmcads/assets/icon/general/thumbs-up.svg

<svg width="24" height="24" viewBox="0 0 24 24" fill="none" xmlns="http://www.w3.org/2000/svg">
<path d="M18.2857 23.4196H6.85713V8.5625L14.8571 0.5625L16.2857 1.99107C16.419 2.1244 16.5286 2.30536 16.6143 2.53393C16.7 2.7625 16.7428 2.98155 16.7428 3.19107V3.59107L15.4857 8.5625H21.7143C22.3238 8.5625 22.8571 8.79107 23.3143 9.24821C23.7714 9.70536 24 10.2387 24 10.8482V13.1339C24 13.2673 23.9857 13.4101 23.9571 13.5625C23.9286 13.7149 23.8857 13.8577 23.8286 13.9911L20.4 22.0482C20.2286 22.4292 19.9428 22.753 19.5428 23.0196C19.1428 23.2863 18.7238 23.4196 18.2857 23.4196ZM4.57141 8.5625V23.4196H-1.52588e-05V8.5625H4.57141Z" fill="#007399"/>
</svg>

<?xml version="1.0" encoding="UTF-8"?>
<svg id="Layer_1" xmlns="http://www.w3.org/2000/svg" version="1.1" viewBox="0 0 24 24">
  <!-- Generator: Adobe Illustrator 30.1.0, SVG Export Plug-In . SVG Version: 2.1.1 Build 136)  -->
  <defs>
    <style>
      .st0 {
        fill: #fff;
      }
    </style>
  </defs>
  <path class="st0" d="M18.3,23.4H6.9v-14.9L14.9.6l1.4,1.4c.1,0,.2.3.3.5,0,.2.1.4.1.7v.4l-1.3,5h6.2c.6,0,1.1.2,1.6.7s.7,1,.7,1.6v2.7c0,.2,0,.3-.1.4l-3.4,8.1c-.2.4-.5.7-.9,1s-.8.4-1.3.4h0ZM4.6,8.6v14.9H0v-14.9h4.6Z"/>
</svg>
